modules/coreui-icons-brand/icons/palantir.svg

<svg version="1.1" xmlns="http://www.w3.org/2000/svg" width="32" height="32" viewBox="0 0 32 32">
<title>palantir</title>
<path d="M26.865 24l-10.865 4.24-10.865-4.24-1.802 3.125 12.667 4.875 12.667-4.875zM16 0c-6.995 0-12.667 5.672-12.667 12.667s5.672 12.667 12.667 12.667c6.995 0 12.667-5.672 12.667-12.667s-5.672-12.667-12.667-12.667zM16 21.438c-4.839 0-8.755-3.922-8.755-8.755 0-4.839 3.917-8.76 8.755-8.76s8.755 3.922 8.755 8.76c0 4.833-3.917 8.755-8.755 8.755z"></path>
</svg>

<svg xmlns="http://www.w3.org/2000/svg" width="32" height="32" viewBox="0 0 32 32"><path d="M26.865 24L16 28.24 5.135 24l-1.802 3.125L16 32l12.667-4.875zM16 0C9.005 0 3.333 5.672 3.333 12.667S9.005 25.334 16 25.334s12.667-5.672 12.667-12.667S22.995 0 16 0zm0 21.438a8.754 8.754 0 01-8.755-8.755c0-4.839 3.917-8.76 8.755-8.76s8.755 3.922 8.755 8.76A8.755 8.755 0 0116 21.438z"/></svg>
